X: 60
T: No_64_Corn_Dance_Song.krn
N: Derived from No_64_Corn_Dance_Song.krn
%%abc-version 2.0
%%abcx-abcm2ps-target-version 5.9.1 (29 Sep 2008)
%%abc-creator hum2abc beta
%%abcx-conversion-date 2019/03/15 08:25:35
%%humdrum-veritas 3630703754
%%humdrum-veritas-data 2013884149
%%linebreak <none>
%%barnumbers 0
L: 1/8
M: 2/4
K: B clef=bass
[K:clef=bass][M:2/4]z3G,/F,/ | 
D,2F,2 | 
[M:3/4]F,2F,2-F,G,/F,/ | 
[M:2/4]D,2F,2 | 
F,2z2 | 
F,F, F,G, ]|:  
B,2B,G, | 
B,4 | 
F, zz2 | 
C2B,2 | 
G,/G,3/ F,/E,3/ | 
G,2E,E, | 
[M:5/8]F,2F, z F, | 
C2B,G,B, | 
[M:2/4]B,/G,3/ G,/E,3/ | 
F,2z2 | 
[M:3/4]G,4B,2 | 
G,4B,2 | 
[M:2/4]G,4 | 
F,E,G,2 | 
[M:3/4]F,4z F, | 
[M:2/4]E,2F,2 | 
[M:3/4]F,4z F, | 
[M:2/4]E,2F,2 | 
[M:3/4]F,4z F, | 
[M:2/4]F,2F,G, :|]  
[M:2/4]F,2z2 | 
C2C/B,/B, [I:setbarnb 29]| 
[M:3/4]C2C/B,/B, z3/ E/ | 
E3/E/ EE E/B,/G, | 
B,4F, z | 
[M:2/4]B,B, G,F,/ z/ | 
B,B, G,E,/ z/ | 
[M:5/8]B,3/C/B,G,/E,/G, | 
[M:3/4]F,2F,/F,/G, F,/ z/ F, :|]  
[M:3/4]F, z F,G, F,/ z/ F, | 
[M:2/4]C2C/B,/B, | 
[M:3/4]C2C/B,/B, z3/ B,/ | 
[M:2/4]E2B,/B,/G, | 
[M:3/4]B,4F, z | 
[M:2/4]B,2C/B,/G, | 
[M:3/4]B,2C/B,/G, z3/ G,/ | 
[M:2/4]C2B,2 | 
G,2G,2 | 
F,2z2 | 
F,2G,2 | 
F,2z3/ F,/ | 
E2E/B,3/ | 
C/B,3/ G, z/ G,/ | 
C2C2 | 
B,/E,3/G,2 | 
F,2z2 | 
F,2F,2 | 
G,F, F,C, | 
[M:3/4]F,2F,2C,2 | 
[M:2/4]F,C, E,C, | 
C,2C,2 | 
B,,4 |]  



